src/assets/icons/tasks-projects-goals,fancy,inbox.svg

<svg width="48" height="48" viewBox="0 0 48 48" fill="none" xmlns="http://www.w3.org/2000/svg">
<rect opacity="0.2" x="5" y="5" width="38" height="38" rx="4" fill="black"/>
<rect opacity="0.6" x="6" y="31" width="36" height="5" rx="2.5" fill="black" stroke="black" stroke-width="2"/>
<rect x="7" y="7" width="34" height="34" rx="2" stroke="black" stroke-width="4"/>
<path d="M5 28H11.4103C12.6675 28 13.2961 28 13.7921 28.3211C14.2881 28.6423 14.5454 29.2158 15.0599 30.3628L15.9401 32.3247C16.4546 33.4717 16.7119 34.0452 17.2079 34.3664C17.7039 34.6875 18.3325 34.6875 19.5897 34.6875H28.7316C29.8395 34.6875 30.3934 34.6875 30.8524 34.4272C31.3114 34.1669 31.5957 33.6915 32.1644 32.7408L33.8356 29.9467C34.4043 28.9959 34.6886 28.5206 35.1476 28.2603C35.6066 28 36.1605 28 37.2684 28H43V35C43 38.7712 43 40.6569 41.8284 41.8284C40.6569 43 38.7712 43 35 43H13C9.22876 43 7.34315 43 6.17157 41.8284C5 40.6569 5 38.7712 5 35V28Z" fill="black"/>
</svg>

<svg xmlns="http://www.w3.org/2000/svg" width="48" height="48" fill="none" viewBox="0 0 48 48">
  <rect width="38" height="38" x="5" y="5" fill="#000" opacity=".2" rx="4"/>
  <rect width="36" height="5" x="6" y="31" fill="#000" stroke="#000" stroke-width="2" opacity=".6" rx="2.5"/>
  <rect width="34" height="34" x="7" y="7" stroke="#000" stroke-width="4" rx="2"/>
  <path fill="#000" d="M5 28h6.41c1.258 0 1.886 0 2.382.321.496.321.753.895 1.268 2.042l.88 1.962c.515 1.147.772 1.72 1.268 2.041.496.322 1.125.322 2.382.322h9.142c1.108 0 1.661 0 2.12-.26.46-.261.744-.736 1.312-1.687l1.672-2.794c.568-.951.853-1.426 1.312-1.687.459-.26 1.012-.26 2.12-.26H43v7c0 3.771 0 5.657-1.172 6.828C40.657 43 38.771 43 35 43H13c-3.771 0-5.657 0-6.828-1.172C5 40.657 5 38.771 5 35v-7z"/>
</svg>
